X: 35964
T: Sarah's First Game
R: slip jig
M: 9/8
K: Gmajor
|:B2D B2G EFG|B2D B2G cBA|B2d B2G cBA|G2G EFG DGA:|
|:B2B e2g f2d|c2c ABc B2A|B2B e2g fga|b2f a2f e2d:|
|:B3 B2d BGA|B2D B2A GGA|B3 B2e d2D|GAB GAB A2G:|

